symbols/web/repeat_on/materialsymbolsoutlined/repeat_on_wght300grad200_40px.svg

<svg xmlns="http://www.w3.org/2000/svg" height="40" width="40"><path d="M4.917 38.417q-1.375 0-2.355-.979-.979-.98-.979-2.355V4.875q0-1.375.979-2.354.98-.979 2.355-.979h30.208q1.375 0 2.354.979.979.979.979 2.354v30.208q0 1.375-.979 2.355-.979.979-2.354.979Zm6.708-1.709 2-2-3.25-3.208H31.75v-9.583h-2.833v6.75H10.375l3.25-3.209-2-2.041-6.667 6.666ZM8.292 18.042h2.833v-6.75h18.542l-3.25 3.208 2 2.042 6.666-6.667-6.666-6.625-2 2 3.25 3.208H8.292Z"/></svg>

<svg xmlns="http://www.w3.org/2000/svg" height="40" width="40"><path d="M4.917 38.417Q3.542 38.417 2.562 37.438Q1.583 36.458 1.583 35.083V4.875Q1.583 3.5 2.562 2.521Q3.542 1.542 4.917 1.542H35.125Q36.5 1.542 37.479 2.521Q38.458 3.5 38.458 4.875V35.083Q38.458 36.458 37.479 37.438Q36.5 38.417 35.125 38.417ZM11.625 36.708 13.625 34.708 10.375 31.5H31.75V21.917H28.917V28.667H10.375L13.625 25.458L11.625 23.417L4.958 30.083ZM8.292 18.042H11.125V11.292H29.667L26.417 14.5L28.417 16.542L35.083 9.875L28.417 3.25L26.417 5.25L29.667 8.458H8.292Z"/></svg>
